X:1
T:Title
L:1/8
M:4/4
K:F
V:1 treble nm="Grand Piano"
V:1
 z4 z2[Q:1/4=100] A2 | A2 A2 BAGB | A6 A2 | B2 d^c cBBA | G6 B2 | B2 A2 A2 GF | AGFE D2 EF | %7
 GFFE EDD^C | DEFG A2 B2 | B2 AG A2 GF | AGFE D2 EF | GFFE EDD^C | D6 z2 |] %13

